apps/www/public/images/launchweek/seven/day1/self-hosted-logs-001-5.svg

<svg xmlns="http://www.w3.org/2000/svg" width="1385" height="400" fill="none" viewBox="0 0 1385 400"><g clip-path="url(#a)" filter="url(#b)"><rect width="701" height="37" x="699" y="192" fill="url(#c)" fill-opacity=".5" rx="8"/><path stroke="#ab6161" stroke-linecap="round" stroke-linejoin="round" stroke-width="1.627" d="M728.262 203.682H716.87c-.899 0-1.628.728-1.628 1.627v11.392c0 .899.729 1.628 1.628 1.628h11.392c.899 0 1.627-.729 1.627-1.628v-11.392c0-.899-.728-1.627-1.627-1.627M720.125 208.564l4.882 4.883M725.007 208.564l-4.882 4.883"/><g filter="url(#d)"><rect width="46.275" height="26.51" x="741.285" y="197.75" fill="#431818" fill-opacity=".4" rx="6.51"/><path fill="#ab6161" d="M754.499 217.199c1.973 0 3.818-1.294 3.818-3.608s-1.57-3.348-3.543-3.348c-.793 0-1.311.177-1.909.452l.275-3.219h4.659v-1.149h-5.84l-.34 5.129.712.453c.728-.421 1.245-.663 2.103-.663 1.537 0 2.54.889 2.54 2.378 0 1.504-1.165 2.475-2.621 2.475-1.391 0-2.233-.582-2.912-1.23l-.663.89c.792.728 1.876 1.44 3.721 1.44m9.927 0c2.297 0 3.704-2.022 3.704-5.565 0-3.576-1.407-5.501-3.704-5.501s-3.705 1.925-3.705 5.501c0 3.543 1.407 5.565 3.705 5.565m0-1.068c-1.44 0-2.46-1.423-2.46-4.497 0-3.09 1.02-4.433 2.46-4.433s2.459 1.343 2.459 4.433c0 3.074-1.02 4.497-2.459 4.497m0-3.51c.533 0 1.003-.405 1.003-1.1s-.47-1.101-1.003-1.101c-.534 0-1.004.405-1.004 1.101 0 .695.47 1.1 1.004 1.1m9.473 4.578c1.974 0 3.818-1.294 3.818-3.608s-1.569-3.348-3.543-3.348c-.792 0-1.31.177-1.908.452l.275-3.219h4.659v-1.149h-5.84l-.34 5.129.712.453c.728-.421 1.245-.663 2.103-.663 1.537 0 2.54.889 2.54 2.378 0 1.504-1.165 2.475-2.621 2.475-1.391 0-2.233-.582-2.912-1.23l-.663.89c.792.728 1.876 1.44 3.72 1.44"/><rect width="45.461" height="25.696" x="741.692" y="198.157" stroke="#ab6161" stroke-width=".814" rx="6.103"/></g><path fill="#fff" fill-opacity=".7" d="M798.146 217.005h7.176v-1.135h-2.787v-9.879h-1.018c-.668.35-1.485.634-2.62.801v.884h2.27v8.194h-3.021zm9.589 0h7.493v-1.185h-3.504c-.634 0-1.335.05-1.986.1 2.904-2.77 4.906-4.823 4.906-6.892 0-1.953-1.335-3.238-3.471-3.238-1.502 0-2.553.668-3.505 1.669l.785.785c.684-.751 1.552-1.336 2.553-1.336 1.569 0 2.32.918 2.32 2.17 0 1.852-1.986 3.788-5.591 7.109zm13.795-5.774c.751 0 1.352-.568 1.352-1.419 0-.834-.601-1.402-1.352-1.402s-1.352.568-1.352 1.402c0 .851.601 1.419 1.352 1.419m0 5.974c.751 0 1.352-.567 1.352-1.402 0-.851-.601-1.418-1.352-1.418s-1.352.567-1.352 1.418c0 .835.601 1.402 1.352 1.402m11.141-.2h1.302v-3.054h1.652v-1.101h-1.652v-3.071h-1.302v3.071h-3.972l3.972-6.859h-1.435l-4.055 7.042v.918h5.49zm8.638.2c2.036 0 3.939-1.335 3.939-3.721s-1.619-3.455-3.655-3.455c-.818 0-1.352.184-1.969.467l.283-3.321h4.806v-1.184h-6.024l-.35 5.29.734.467c.751-.434 1.285-.684 2.169-.684 1.586 0 2.62.918 2.62 2.453 0 1.552-1.201 2.553-2.703 2.553-1.435 0-2.303-.6-3.004-1.268l-.684.918c.818.751 1.936 1.485 3.838 1.485m10.24-5.974c.751 0 1.352-.568 1.352-1.419 0-.834-.601-1.402-1.352-1.402s-1.352.568-1.352 1.402c0 .851.601 1.419 1.352 1.419m0 5.974c.751 0 1.352-.567 1.352-1.402 0-.851-.601-1.418-1.352-1.418s-1.352.567-1.352 1.418c0 .835.601 1.402 1.352 1.402m10.007 0c2.369 0 3.821-2.086 3.821-5.741 0-3.688-1.452-5.674-3.821-5.674s-3.822 1.986-3.822 5.674c0 3.655 1.452 5.741 3.822 5.741m-2.253-3.221c-.184-.667-.284-1.518-.284-2.52 0-3.187 1.051-4.572 2.537-4.572.684 0 1.285.3 1.718.951zm2.253 2.12c-.735 0-1.352-.351-1.803-1.085l4.005-6.191c.217.684.334 1.568.334 2.636 0 3.171-1.051 4.64-2.536 4.64m6.218.901h7.493v-1.185h-3.505c-.634 0-1.335.05-1.986.1 2.904-2.77 4.907-4.823 4.907-6.892 0-1.953-1.335-3.238-3.471-3.238-1.502 0-2.554.668-3.505 1.669l.784.785c.685-.751 1.552-1.336 2.554-1.336 1.568 0 2.319.918 2.319 2.17 0 1.852-1.986 3.788-5.59 7.109z"/><path stroke="#bfbfbf" stroke-width="1.156" d="M886.461 202.085v17.84"/><path fill="#fff" fill-opacity=".7" d="M900.085 220.793c2.403 0 3.788-1.318 3.788-3.788v-8.511h-1.101l-.117.951h-.05c-.718-.717-1.535-1.151-2.487-1.151-1.969 0-3.704 1.668-3.704 4.339 0 2.686 1.418 4.288 3.504 4.288 1.001 0 2.003-.567 2.637-1.268l-.017 1.352c-.016 1.986-.901 2.687-2.453 2.687-.818 0-1.752-.234-2.587-1.302l-.667.834c1.051 1.252 2.203 1.569 3.254 1.569m.134-5.006c-1.486 0-2.404-1.235-2.404-3.171 0-1.853 1.169-3.171 2.537-3.171.718 0 1.419.284 2.153 1.018v4.022c-.734.851-1.502 1.302-2.286 1.302m10.707 1.435c1.302 0 2.32-.467 3.121-1.001l-.484-.918c-.751.5-1.519.801-2.47.801-1.769 0-3.037-1.185-3.104-3.021h6.341a6 6 0 0 0 .05-.801c0-2.403-1.368-3.988-3.688-3.988-2.102 0-4.122 1.702-4.122 4.472 0 2.787 1.953 4.456 4.356 4.456m-2.954-5.14c.217-1.702 1.419-2.704 2.737-2.704 1.502 0 2.403.968 2.403 2.704zm14.012 5.14c.884 0 1.819-.234 2.553-.518l-.3-1.001a5 5 0 0 1-1.953.384c-1.569 0-2.053-.818-2.053-2.353v-4.122h3.989v-1.118h-3.989v-3.338l-1.318.835v2.503h-2.336v1.118h2.286v4.105c0 2.086.768 3.505 3.121 3.505"/><path stroke="#bfbfbf" stroke-width="1.156" d="M935.364 202.085v17.84"/><path fill="#fff" fill-opacity=".7" d="M945.132 217.706h1.235l7.143-12.55h-1.235zm14.529-11.115c.651 0 1.168-.467 1.168-1.151 0-.701-.517-1.185-1.168-1.185s-1.168.484-1.168 1.185c0 .684.517 1.151 1.168 1.151m-3.671 10.414h7.676v-1.135h-3.154v-7.376h-4.522v1.118h3.154v6.258h-3.154zm9.339 0h1.318v-6.191c.417-.885.784-1.336 1.352-1.336.601 0 .918.518.918 1.552v5.975h1.101v-6.191c.417-.885.801-1.336 1.385-1.336.601 0 .885.518.885 1.552v5.975h1.318v-6.091c0-1.703-.651-2.62-1.769-2.62-.901 0-1.435.567-1.919 1.468-.2-.984-.718-1.468-1.535-1.468-.918 0-1.419.534-1.819 1.335h-.051l-.116-1.135h-1.068zm13.677 3.788c2.404 0 3.789-1.318 3.789-3.788v-8.511h-1.102l-.117.951h-.05c-.717-.717-1.535-1.151-2.486-1.151-1.969 0-3.705 1.668-3.705 4.339 0 2.686 1.419 4.288 3.505 4.288 1.001 0 2.002-.567 2.636-1.268l-.016 1.352c-.017 1.986-.902 2.687-2.454 2.687-.817 0-1.752-.234-2.586-1.302l-.668.834c1.052 1.252 2.203 1.569 3.254 1.569m.134-5.006c-1.485 0-2.403-1.235-2.403-3.171 0-1.853 1.168-3.171 2.536-3.171.718 0 1.419.284 2.153 1.018v4.022c-.734.851-1.502 1.302-2.286 1.302m6.018 1.919h1.235l7.142-12.55H992.3zm14.362-.484c2.32 0 3.6-1.152 3.6-2.537 0-1.285-1.05-1.952-3.233-2.536-1.468-.384-2.47-.818-2.47-1.519 0-.684.484-1.268 2.003-1.268 1 0 1.87.367 2.59.901l.66-.901c-.8-.568-2.03-1.068-3.25-1.068-2.236 0-3.405 1.051-3.405 2.403 0 1.185 1.419 1.969 3.088 2.403 1.987.517 2.637 1.001 2.637 1.669 0 .767-.72 1.368-2.17 1.368-1.452 0-2.453-.45-3.354-1.151l-.668.901c.985.717 2.387 1.335 3.972 1.335m6.39-.217h1.36v-5.941c.95-1.068 1.61-1.586 2.57-1.586 1.34 0 1.87.785 1.87 2.42v5.107h1.37v-5.29c0-2.237-.88-3.421-2.8-3.421-1.27 0-2.21.717-3.07 1.685l.06-2.036v-3.07h-1.36zm12.55.217c1.16 0 2.31-.651 3.21-1.385h.05l.12 1.168h1.11v-5.24c0-2.086-1.06-3.471-3.28-3.471-1.42 0-2.62.667-3.27 1.218l.53.951c.58-.501 1.45-1.035 2.5-1.035 1.57 0 2.12 1.018 2.16 2.187-4.19.367-5.88 1.285-5.88 3.204 0 1.518 1.24 2.403 2.75 2.403m.37-1.102c-.93 0-1.78-.417-1.78-1.401 0-1.152 1.06-1.886 4.54-2.187v2.287c-.92.834-1.84 1.301-2.76 1.301m7.97.885h1.37v-5.023c.97-1.786 2.12-2.453 3.34-2.453.63 0 .93.083 1.5.3l.32-1.185c-.5-.267-1-.35-1.6-.35-1.51 0-2.77.867-3.63 2.236h-.05l-.11-2.036h-1.14zm13.08.217c1.3 0 2.32-.467 3.12-1.001l-.48-.918c-.75.5-1.52.801-2.47.801-1.77 0-3.04-1.185-3.11-3.021h6.34c.04-.217.05-.517.05-.801 0-2.403-1.36-3.988-3.68-3.988-2.11 0-4.13 1.702-4.13 4.472 0 2.787 1.96 4.456 4.36 4.456m-2.95-5.14c.21-1.702 1.41-2.704 2.73-2.704 1.5 0 2.41.968 2.41 2.704zm12.46 5.123c.75 0 1.35-.567 1.35-1.402 0-.851-.6-1.418-1.35-1.418-.76 0-1.36.567-1.36 1.418 0 .835.6 1.402 1.36 1.402m10.17.017c2.32 0 3.6-1.152 3.6-2.537 0-1.285-1.05-1.952-3.23-2.536-1.47-.384-2.47-.818-2.47-1.519 0-.684.48-1.268 2-1.268 1 0 1.87.367 2.59.901l.66-.901c-.8-.568-2.03-1.068-3.25-1.068-2.24 0-3.41 1.051-3.41 2.403 0 1.185 1.42 1.969 3.09 2.403 1.99.517 2.64 1.001 2.64 1.669 0 .767-.72 1.368-2.17 1.368s-2.45-.45-3.36-1.151l-.66.901c.98.717 2.38 1.335 3.97 1.335m9.1-.217h1.54l3.35-8.511h-1.31l-1.87 4.89c-.34.851-.6 1.702-.89 2.486h-.07c-.28-.784-.58-1.635-.91-2.486l-1.87-4.89h-1.39zm10.41 3.788c2.4 0 3.79-1.318 3.79-3.788v-8.511h-1.1l-.12.951h-.05c-.72-.717-1.53-1.151-2.49-1.151-1.96 0-3.7 1.668-3.7 4.339 0 2.686 1.42 4.288 3.5 4.288 1.01 0 2.01-.567 2.64-1.268l-.02 1.352c-.01 1.986-.9 2.687-2.45 2.687-.82 0-1.75-.234-2.59-1.302l-.66.834c1.05 1.252 2.2 1.569 3.25 1.569m.13-5.006c-1.48 0-2.4-1.235-2.4-3.171 0-1.853 1.17-3.171 2.54-3.171.72 0 1.42.284 2.15 1.018v4.022c-.73.851-1.5 1.302-2.29 1.302"/><rect width="699.808" height="35.808" x="699.596" y="192.596" stroke="url(#e)" stroke-width="1.192" rx="7.404"/></g><defs><linearGradient id="c" x1="1046.49" x2="1075.08" y1="117.264" y2="267.229" gradientUnits="userSpaceOnUse"><stop stop-color="#bb93c5" stop-opacity="0"/><stop offset=".198" stop-color="#bb93c5" stop-opacity=".19"/><stop offset="1" stop-color="#302642"/></linearGradient><linearGradient id="e" x1="1279.95" x2="1291.7" y1="229" y2="184.344" gradientUnits="userSpaceOnUse"><stop stop-color="#d478ff" stop-opacity=".05"/><stop offset="1" stop-color="#d782ff" stop-opacity=".74"/></linearGradient><filter id="b" width="720.072" height="56.072" x="689.464" y="182.464" color-interpolation-filters="sRGB" filterUnits="userSpaceOnUse"><feFlood flood-opacity="0" result="BackgroundImageFix"/><feGaussianBlur in="BackgroundImageFix" stdDeviation="4.768"/><feComposite in2="SourceAlpha" operator="in" result="effect1_backgroundBlur_19_7420"/><feBlend in="SourceGraphic" in2="effect1_backgroundBlur_19_7420" result="shape"/></filter><filter id="d" width="132.782" height="113.017" x="698.031" y="154.496" color-interpolation-filters="sRGB" filterUnits="userSpaceOnUse"><feFlood flood-opacity="0" result="BackgroundImageFix"/><feGaussianBlur in="BackgroundImageFix" stdDeviation="21.627"/><feComposite in2="SourceAlpha" operator="in" result="effect1_backgroundBlur_19_7420"/><feBlend in="SourceGraphic" in2="effect1_backgroundBlur_19_7420" result="shape"/></filter><clipPath id="a"><path fill="#fff" d="M0 0h1385v400H0z"/></clipPath></defs></svg>

<svg width="1385" height="400" viewBox="0 0 1385 400" fill="none" xmlns="http://www.w3.org/2000/svg">
<g clip-path="url(#clip0_19_7420)">
<g filter="url(#filter0_b_19_7420)">
<rect x="699" y="192" width="701" height="37" rx="8" fill="url(#paint0_linear_19_7420)" fill-opacity="0.5"/>
<path d="M728.262 203.682H716.87C715.971 203.682 715.242 204.41 715.242 205.309V216.701C715.242 217.6 715.971 218.329 716.87 218.329H728.262C729.161 218.329 729.889 217.6 729.889 216.701V205.309C729.889 204.41 729.161 203.682 728.262 203.682Z" stroke="#AB6161" stroke-width="1.62745" stroke-linecap="round" stroke-linejoin="round"/>
<path d="M720.125 208.564L725.007 213.447" stroke="#AB6161" stroke-width="1.62745" stroke-linecap="round" stroke-linejoin="round"/>
<path d="M725.007 208.564L720.125 213.447" stroke="#AB6161" stroke-width="1.62745" stroke-linecap="round" stroke-linejoin="round"/>
<g filter="url(#filter1_b_19_7420)">
<rect x="741.285" y="197.75" width="46.2745" height="26.5098" rx="6.5098" fill="#431818" fill-opacity="0.4"/>
<path d="M754.499 217.199C756.472 217.199 758.317 215.905 758.317 213.591C758.317 211.278 756.747 210.243 754.774 210.243C753.981 210.243 753.463 210.42 752.865 210.695L753.14 207.476H757.799V206.327H751.959L751.619 211.456L752.331 211.909C753.059 211.488 753.576 211.246 754.434 211.246C755.971 211.246 756.974 212.135 756.974 213.624C756.974 215.128 755.809 216.099 754.353 216.099C752.962 216.099 752.12 215.517 751.441 214.869L750.778 215.759C751.57 216.487 752.654 217.199 754.499 217.199ZM764.426 217.199C766.723 217.199 768.13 215.177 768.13 211.634C768.13 208.058 766.723 206.133 764.426 206.133C762.128 206.133 760.721 208.058 760.721 211.634C760.721 215.177 762.128 217.199 764.426 217.199ZM764.426 216.131C762.986 216.131 761.966 214.708 761.966 211.634C761.966 208.544 762.986 207.201 764.426 207.201C765.865 207.201 766.885 208.544 766.885 211.634C766.885 214.708 765.865 216.131 764.426 216.131ZM764.426 212.621C764.959 212.621 765.429 212.216 765.429 211.521C765.429 210.825 764.959 210.42 764.426 210.42C763.892 210.42 763.422 210.825 763.422 211.521C763.422 212.216 763.892 212.621 764.426 212.621ZM773.899 217.199C775.873 217.199 777.717 215.905 777.717 213.591C777.717 211.278 776.148 210.243 774.174 210.243C773.382 210.243 772.864 210.42 772.266 210.695L772.541 207.476H777.2V206.327H771.36L771.02 211.456L771.732 211.909C772.46 211.488 772.977 211.246 773.835 211.246C775.372 211.246 776.375 212.135 776.375 213.624C776.375 215.128 775.21 216.099 773.754 216.099C772.363 216.099 771.521 215.517 770.842 214.869L770.179 215.759C770.971 216.487 772.055 217.199 773.899 217.199Z" fill="#AB6161"/>
<rect x="741.692" y="198.157" width="45.4608" height="25.6961" rx="6.10293" stroke="#AB6161" stroke-width="0.813724"/>
</g>
<path d="M798.146 217.005H805.322V215.87H802.535V205.991H801.517C800.849 206.341 800.032 206.625 798.897 206.792V207.676H801.167V215.87H798.146V217.005ZM807.735 217.005H815.228V215.82H811.724C811.09 215.82 810.389 215.87 809.738 215.92C812.642 213.15 814.644 211.097 814.644 209.028C814.644 207.075 813.309 205.79 811.173 205.79C809.671 205.79 808.62 206.458 807.668 207.459L808.453 208.244C809.137 207.493 810.005 206.908 811.006 206.908C812.575 206.908 813.326 207.826 813.326 209.078C813.326 210.93 811.34 212.866 807.735 216.187V217.005ZM821.53 211.231C822.281 211.231 822.882 210.663 822.882 209.812C822.882 208.978 822.281 208.41 821.53 208.41C820.779 208.41 820.178 208.978 820.178 209.812C820.178 210.663 820.779 211.231 821.53 211.231ZM821.53 217.205C822.281 217.205 822.882 216.638 822.882 215.803C822.882 214.952 822.281 214.385 821.53 214.385C820.779 214.385 820.178 214.952 820.178 215.803C820.178 216.638 820.779 217.205 821.53 217.205ZM832.671 217.005H833.973V213.951H835.625V212.85H833.973V209.779H832.671V212.85H828.699L832.671 205.991H831.236L827.181 213.033V213.951H832.671V217.005ZM841.309 217.205C843.345 217.205 845.248 215.87 845.248 213.484C845.248 211.097 843.629 210.029 841.593 210.029C840.775 210.029 840.241 210.213 839.624 210.496L839.907 207.175H844.713V205.991H838.689L838.339 211.281L839.073 211.748C839.824 211.314 840.358 211.064 841.242 211.064C842.828 211.064 843.862 211.982 843.862 213.517C843.862 215.069 842.661 216.07 841.159 216.07C839.724 216.07 838.856 215.47 838.155 214.802L837.471 215.72C838.289 216.471 839.407 217.205 841.309 217.205ZM851.549 211.231C852.3 211.231 852.901 210.663 852.901 209.812C852.901 208.978 852.3 208.41 851.549 208.41C850.798 208.41 850.197 208.978 850.197 209.812C850.197 210.663 850.798 211.231 851.549 211.231ZM851.549 217.205C852.3 217.205 852.901 216.638 852.901 215.803C852.901 214.952 852.3 214.385 851.549 214.385C850.798 214.385 850.197 214.952 850.197 215.803C850.197 216.638 850.798 217.205 851.549 217.205ZM861.556 217.205C863.925 217.205 865.377 215.119 865.377 211.464C865.377 207.776 863.925 205.79 861.556 205.79C859.186 205.79 857.734 207.776 857.734 211.464C857.734 215.119 859.186 217.205 861.556 217.205ZM859.303 213.984C859.119 213.317 859.019 212.466 859.019 211.464C859.019 208.277 860.07 206.892 861.556 206.892C862.24 206.892 862.841 207.192 863.274 207.843L859.303 213.984ZM861.556 216.104C860.821 216.104 860.204 215.753 859.753 215.019L863.758 208.828C863.975 209.512 864.092 210.396 864.092 211.464C864.092 214.635 863.041 216.104 861.556 216.104ZM867.774 217.005H875.267V215.82H871.762C871.128 215.82 870.427 215.87 869.776 215.92C872.68 213.15 874.683 211.097 874.683 209.028C874.683 207.075 873.348 205.79 871.212 205.79C869.71 205.79 868.658 206.458 867.707 207.459L868.491 208.244C869.176 207.493 870.043 206.908 871.045 206.908C872.613 206.908 873.364 207.826 873.364 209.078C873.364 210.93 871.378 212.866 867.774 216.187V217.005Z" fill="white" fill-opacity="0.7"/>
<path d="M886.461 202.085L886.461 219.925" stroke="#BFBFBF" stroke-width="1.15557"/>
<path d="M900.085 220.793C902.488 220.793 903.873 219.475 903.873 217.005V208.494H902.772L902.655 209.445H902.605C901.887 208.728 901.07 208.294 900.118 208.294C898.149 208.294 896.414 209.962 896.414 212.633C896.414 215.319 897.832 216.921 899.918 216.921C900.919 216.921 901.921 216.354 902.555 215.653L902.538 217.005C902.522 218.991 901.637 219.692 900.085 219.692C899.267 219.692 898.333 219.458 897.498 218.39L896.831 219.224C897.882 220.476 899.034 220.793 900.085 220.793ZM900.219 215.787C898.733 215.787 897.815 214.552 897.815 212.616C897.815 210.763 898.984 209.445 900.352 209.445C901.07 209.445 901.771 209.729 902.505 210.463V214.485C901.771 215.336 901.003 215.787 900.219 215.787ZM910.926 217.222C912.228 217.222 913.246 216.755 914.047 216.221L913.563 215.303C912.812 215.803 912.044 216.104 911.093 216.104C909.324 216.104 908.056 214.919 907.989 213.083H914.33C914.364 212.866 914.38 212.566 914.38 212.282C914.38 209.879 913.012 208.294 910.692 208.294C908.59 208.294 906.57 209.996 906.57 212.766C906.57 215.553 908.523 217.222 910.926 217.222ZM907.972 212.082C908.189 210.38 909.391 209.378 910.709 209.378C912.211 209.378 913.112 210.346 913.112 212.082H907.972ZM921.984 217.222C922.868 217.222 923.803 216.988 924.537 216.704L924.237 215.703C923.669 215.937 923.052 216.087 922.284 216.087C920.715 216.087 920.231 215.269 920.231 213.734V209.612H924.22V208.494H920.231V205.156L918.913 205.991V208.494H916.577V209.612H918.863V213.717C918.863 215.803 919.631 217.222 921.984 217.222Z" fill="white" fill-opacity="0.7"/>
<path d="M935.364 202.085L935.364 219.925" stroke="#BFBFBF" stroke-width="1.15557"/>
<path d="M945.132 217.706H946.367L953.51 205.156H952.275L945.132 217.706ZM959.661 206.591C960.312 206.591 960.829 206.124 960.829 205.44C960.829 204.739 960.312 204.255 959.661 204.255C959.01 204.255 958.493 204.739 958.493 205.44C958.493 206.124 959.01 206.591 959.661 206.591ZM955.99 217.005H963.666V215.87H960.512V208.494H955.99V209.612H959.144V215.87H955.99V217.005ZM965.329 217.005H966.647V210.814C967.064 209.929 967.431 209.478 967.999 209.478C968.6 209.478 968.917 209.996 968.917 211.03V217.005H970.018V210.814C970.435 209.929 970.819 209.478 971.403 209.478C972.004 209.478 972.288 209.996 972.288 211.03V217.005H973.606V210.914C973.606 209.211 972.955 208.294 971.837 208.294C970.936 208.294 970.402 208.861 969.918 209.762C969.718 208.778 969.2 208.294 968.383 208.294C967.465 208.294 966.964 208.828 966.564 209.629H966.513L966.397 208.494H965.329V217.005ZM979.006 220.793C981.41 220.793 982.795 219.475 982.795 217.005V208.494H981.693L981.576 209.445H981.526C980.809 208.728 979.991 208.294 979.04 208.294C977.071 208.294 975.335 209.962 975.335 212.633C975.335 215.319 976.754 216.921 978.84 216.921C979.841 216.921 980.842 216.354 981.476 215.653L981.46 217.005C981.443 218.991 980.558 219.692 979.006 219.692C978.189 219.692 977.254 219.458 976.42 218.39L975.752 219.224C976.804 220.476 977.955 220.793 979.006 220.793ZM979.14 215.787C977.655 215.787 976.737 214.552 976.737 212.616C976.737 210.763 977.905 209.445 979.273 209.445C979.991 209.445 980.692 209.729 981.426 210.463V214.485C980.692 215.336 979.924 215.787 979.14 215.787ZM985.158 217.706H986.393L993.535 205.156H992.3L985.158 217.706ZM999.52 217.222C1001.84 217.222 1003.12 216.07 1003.12 214.685C1003.12 213.4 1002.07 212.733 999.887 212.149C998.419 211.765 997.417 211.331 997.417 210.63C997.417 209.946 997.901 209.362 999.42 209.362C1000.42 209.362 1001.29 209.729 1002.01 210.263L1002.67 209.362C1001.87 208.794 1000.64 208.294 999.42 208.294C997.184 208.294 996.015 209.345 996.015 210.697C996.015 211.882 997.434 212.666 999.103 213.1C1001.09 213.617 1001.74 214.101 1001.74 214.769C1001.74 215.536 1001.02 216.137 999.57 216.137C998.118 216.137 997.117 215.687 996.216 214.986L995.548 215.887C996.533 216.604 997.935 217.222 999.52 217.222ZM1005.91 217.005H1007.27V211.064C1008.22 209.996 1008.88 209.478 1009.84 209.478C1011.18 209.478 1011.71 210.263 1011.71 211.898V217.005H1013.08V211.715C1013.08 209.478 1012.2 208.294 1010.28 208.294C1009.01 208.294 1008.07 209.011 1007.21 209.979L1007.27 207.943V204.873H1005.91V217.005ZM1018.46 217.222C1019.62 217.222 1020.77 216.571 1021.67 215.837H1021.72L1021.84 217.005H1022.95V211.765C1022.95 209.679 1021.89 208.294 1019.67 208.294C1018.25 208.294 1017.05 208.961 1016.4 209.512L1016.93 210.463C1017.51 209.962 1018.38 209.428 1019.43 209.428C1021 209.428 1021.55 210.446 1021.59 211.615C1017.4 211.982 1015.71 212.9 1015.71 214.819C1015.71 216.337 1016.95 217.222 1018.46 217.222ZM1018.83 216.12C1017.9 216.12 1017.05 215.703 1017.05 214.719C1017.05 213.567 1018.11 212.833 1021.59 212.532V214.819C1020.67 215.653 1019.75 216.12 1018.83 216.12ZM1026.8 217.005H1028.17V211.982C1029.14 210.196 1030.29 209.529 1031.51 209.529C1032.14 209.529 1032.44 209.612 1033.01 209.829L1033.33 208.644C1032.83 208.377 1032.33 208.294 1031.73 208.294C1030.22 208.294 1028.96 209.161 1028.1 210.53H1028.05L1027.94 208.494H1026.8V217.005ZM1039.88 217.222C1041.18 217.222 1042.2 216.755 1043 216.221L1042.52 215.303C1041.77 215.803 1041 216.104 1040.05 216.104C1038.28 216.104 1037.01 214.919 1036.94 213.083H1043.28C1043.32 212.866 1043.33 212.566 1043.33 212.282C1043.33 209.879 1041.97 208.294 1039.65 208.294C1037.54 208.294 1035.52 209.996 1035.52 212.766C1035.52 215.553 1037.48 217.222 1039.88 217.222ZM1036.93 212.082C1037.14 210.38 1038.34 209.378 1039.66 209.378C1041.16 209.378 1042.07 210.346 1042.07 212.082H1036.93ZM1049.39 217.205C1050.14 217.205 1050.74 216.638 1050.74 215.803C1050.74 214.952 1050.14 214.385 1049.39 214.385C1048.63 214.385 1048.03 214.952 1048.03 215.803C1048.03 216.638 1048.63 217.205 1049.39 217.205ZM1059.56 217.222C1061.88 217.222 1063.16 216.07 1063.16 214.685C1063.16 213.4 1062.11 212.733 1059.93 212.149C1058.46 211.765 1057.46 211.331 1057.46 210.63C1057.46 209.946 1057.94 209.362 1059.46 209.362C1060.46 209.362 1061.33 209.729 1062.05 210.263L1062.71 209.362C1061.91 208.794 1060.68 208.294 1059.46 208.294C1057.22 208.294 1056.05 209.345 1056.05 210.697C1056.05 211.882 1057.47 212.666 1059.14 213.1C1061.13 213.617 1061.78 214.101 1061.78 214.769C1061.78 215.536 1061.06 216.137 1059.61 216.137C1058.16 216.137 1057.16 215.687 1056.25 214.986L1055.59 215.887C1056.57 216.604 1057.97 217.222 1059.56 217.222ZM1068.66 217.005H1070.2L1073.55 208.494H1072.24L1070.37 213.384C1070.03 214.235 1069.77 215.086 1069.48 215.87H1069.41C1069.13 215.086 1068.83 214.235 1068.5 213.384L1066.63 208.494H1065.24L1068.66 217.005ZM1079.07 220.793C1081.47 220.793 1082.86 219.475 1082.86 217.005V208.494H1081.76L1081.64 209.445H1081.59C1080.87 208.728 1080.06 208.294 1079.1 208.294C1077.14 208.294 1075.4 209.962 1075.4 212.633C1075.4 215.319 1076.82 216.921 1078.9 216.921C1079.91 216.921 1080.91 216.354 1081.54 215.653L1081.52 217.005C1081.51 218.991 1080.62 219.692 1079.07 219.692C1078.25 219.692 1077.32 219.458 1076.48 218.39L1075.82 219.224C1076.87 220.476 1078.02 220.793 1079.07 220.793ZM1079.2 215.787C1077.72 215.787 1076.8 214.552 1076.8 212.616C1076.8 210.763 1077.97 209.445 1079.34 209.445C1080.06 209.445 1080.76 209.729 1081.49 210.463V214.485C1080.76 215.336 1079.99 215.787 1079.2 215.787Z" fill="white" fill-opacity="0.7"/>
<rect x="699.596" y="192.596" width="699.808" height="35.808" rx="7.40399" stroke="url(#paint1_linear_19_7420)" stroke-width="1.19202"/>
</g>
</g>
<defs>
<filter id="filter0_b_19_7420" x="689.464" y="182.464" width="720.072" height="56.0723" filterUnits="userSpaceOnUse" color-interpolation-filters="sRGB">
<feFlood flood-opacity="0" result="BackgroundImageFix"/>
<feGaussianBlur in="BackgroundImageFix" stdDeviation="4.76807"/>
<feComposite in2="SourceAlpha" operator="in" result="effect1_backgroundBlur_19_7420"/>
<feBlend mode="normal" in="SourceGraphic" in2="effect1_backgroundBlur_19_7420" result="shape"/>
</filter>
<filter id="filter1_b_19_7420" x="698.031" y="154.496" width="132.782" height="113.017" filterUnits="userSpaceOnUse" color-interpolation-filters="sRGB">
<feFlood flood-opacity="0" result="BackgroundImageFix"/>
<feGaussianBlur in="BackgroundImageFix" stdDeviation="21.6269"/>
<feComposite in2="SourceAlpha" operator="in" result="effect1_backgroundBlur_19_7420"/>
<feBlend mode="normal" in="SourceGraphic" in2="effect1_backgroundBlur_19_7420" result="shape"/>
</filter>
<linearGradient id="paint0_linear_19_7420" x1="1046.49" y1="117.264" x2="1075.08" y2="267.229" gradientUnits="userSpaceOnUse">
<stop stop-color="#BB93C5" stop-opacity="0"/>
<stop offset="0.197872" stop-color="#BB93C5" stop-opacity="0.19"/>
<stop offset="1" stop-color="#302642"/>
</linearGradient>
<linearGradient id="paint1_linear_19_7420" x1="1279.95" y1="229" x2="1291.7" y2="184.344" gradientUnits="userSpaceOnUse">
<stop stop-color="#D478FF" stop-opacity="0.05"/>
<stop offset="1" stop-color="#D782FF" stop-opacity="0.74"/>
</linearGradient>
<clipPath id="clip0_19_7420">
<rect width="1385" height="400" fill="white"/>
</clipPath>
</defs>
</svg>
